!!!COM: Fux, Johann Joseph
!!!OMD: Gradus ad Parnassum Exercise
!!!YEC: CC0 1.0 Universal (Public Domain). Mark Gotham and FourScoreAndMore.org waive all rights to this document.
**kern	**kern
*part2	*part1
*staff2	*staff1
*I"2	*I"1
*I'Pno	*I'Pno
!!LO:PB:g=z
*clefG2	*clefG2
*k[]	*k[]
!!LO:TX:omd:t=
*M2/2	*M2/2
=260	=260
!	!LO:TX:a:t=Fig. 55; Species&colon; 3; Modal final&colon; d; Cantus firmus&colon; Lower
1d	4d/
.	4e/
.	4f/
.	4g/
=261	=261
1f	4a/
.	4b\
.	4cc\
.	4dd\
=262	=262
1e	4ee\
.	4dd\
.	4b\
.	4cc\
=263	=263
1d	4dd\
.	4cc\
.	4b-X\
.	4a/
=264	=264
1g	4b-X\
.	4cc\
.	4dd\
.	4ee\
!!LO:LB:g=z
=265	=265
1f	4ff\
.	4f/
.	4a/
.	4b\
=266	=266
1a	4cc\
.	4a/
.	4b-X\
.	4cc\
=267	=267
1g	4b-X\
.	4a/
.	4g/
.	4b-\
=268	=268
1f	4a/
.	4d/
.	4e/
.	4f/
=269	=269
1e	4g/
.	4a/
.	4b\
.	4cc#X\
=270	=270
1d	1dd
==	==
*-	*-
!!!software: music21 v.9.7.1
!!!software: music21 v.9.7.1
!!!software: MuseScore 3.4.2
!!!RDF**kern: > = above
!!!RDF**kern: < = below
